X: 7
T: Blairnanes Rant
R:Strathspey
C:J. Scott Skinner
S:MacDonald - Skye Collection
N:pg.65
M:C
L:1/8
K:D
F|F<(A A>)B A>Bd>f|e>fe>d (B2 B<)d|F<(A A>)B A>Bd>b|a<f e>f d2d:|
D|D<d d>B B>AA>D|D<d d>B (B<A) (A>D)|D<d d>B B>AA>F|G>A F>G (E2 E>)D|
D<d d>B B>AA>D|D<d d>B B<A A>c|(3dcd (3efg (3fed (3cBA|(3cBA (3GFE (D2D||


